source/img/icons/shipping.svg

<svg width="28" height="15" viewBox="0 0 28 15" fill="none" xmlns="http://www.w3.org/2000/svg">
<path d="M8.13721 2.03432H0V2.71242H8.13721V2.03432Z" fill="black"/>
<path d="M10.1715 4.06861H2.03429V4.74671H10.1715V4.06861Z" fill="black"/>
<path d="M4.74667 0.248306V12.305C4.74667 12.3378 4.7532 12.3703 4.76587 12.4005C4.77854 12.4308 4.7971 12.4582 4.8205 12.4813C4.84389 12.5044 4.87165 12.5226 4.90217 12.535C4.93269 12.5473 4.96537 12.5535 4.99832 12.5533H8.18998L8.20256 12.6492C8.25886 13.0888 8.47435 13.4928 8.80865 13.7857C9.14295 14.0786 9.57313 14.2401 10.0186 14.2401C10.464 14.2401 10.8942 14.0786 11.2285 13.7857C11.5628 13.4928 11.7783 13.0888 11.8346 12.6492L11.8472 12.5533H20.726L20.7386 12.6492C20.7949 13.0888 21.0103 13.4928 21.3446 13.7857C21.6789 14.0786 22.1091 14.2401 22.5546 14.2401C23 14.2401 23.4302 14.0786 23.7645 13.7857C24.0988 13.4928 24.3143 13.0888 24.3706 12.6492L24.3832 12.5533H26.8724C26.9053 12.5535 26.938 12.5473 26.9685 12.535C26.999 12.5226 27.0268 12.5044 27.0502 12.4813C27.0736 12.4582 27.0921 12.4308 27.1048 12.4005C27.1175 12.3703 27.124 12.3378 27.124 12.305V7.39682C27.124 7.36405 27.1175 7.3316 27.1048 7.30135C27.0921 7.2711 27.0736 7.24364 27.0502 7.22056C27.0268 7.19748 26.999 7.17924 26.9685 7.16689C26.938 7.15454 26.9053 7.14833 26.8724 7.1486H24.8403V3.8111C24.8406 3.77832 24.8344 3.74582 24.8219 3.71546C24.8095 3.68511 24.7912 3.6575 24.768 3.63422C24.7448 3.61095 24.7172 3.59248 24.6868 3.57987C24.6564 3.56727 24.6237 3.56078 24.5908 3.56078H18.4885V0.248306C18.4885 0.215533 18.4819 0.183085 18.4693 0.152832C18.4566 0.122579 18.438 0.0951216 18.4146 0.0720441C18.3912 0.0489667 18.3635 0.0307254 18.333 0.0183742C18.3024 0.00602298 18.2698 -0.000196494 18.2368 7.89168e-05H5.0025C4.9692 -0.000756319 4.93608 0.00504551 4.90507 0.0171456C4.87407 0.0292457 4.84581 0.0474017 4.82197 0.0705355C4.79812 0.0936692 4.77918 0.121314 4.76625 0.151846C4.75332 0.182377 4.74666 0.215175 4.74667 0.248306ZM21.223 12.4135C21.223 12.1515 21.3011 11.8953 21.4475 11.6774C21.594 11.4595 21.802 11.2898 22.0455 11.1896C22.2889 11.0894 22.5568 11.0633 22.8151 11.1145C23.0735 11.1658 23.3108 11.2922 23.4969 11.4776C23.6831 11.6631 23.8097 11.8993 23.8609 12.1564C23.912 12.4135 23.8853 12.6799 23.7842 12.9219C23.6831 13.1639 23.5121 13.3706 23.2929 13.5159C23.0736 13.6612 22.8159 13.7385 22.5525 13.7381C22.2004 13.7364 21.8633 13.5962 21.615 13.3479C21.3666 13.0997 21.2272 12.7637 21.2272 12.4135H21.223ZM18.4843 4.06975H24.3392V7.40726C24.3392 7.47364 24.3657 7.53731 24.4129 7.58425C24.4601 7.6312 24.5241 7.65757 24.5908 7.65757H26.6228V12.0652H24.3517L24.3308 11.9838C24.2366 11.5839 24.0092 11.2273 23.6857 10.9721C23.3621 10.7169 22.9613 10.578 22.5483 10.578C22.1353 10.578 21.7345 10.7169 21.4109 10.9721C21.0873 11.2273 20.86 11.5839 20.7658 11.9838L20.7449 12.0652H18.4885L18.4843 4.06975ZM8.68697 12.4135C8.68697 12.1516 8.76502 11.8956 8.91125 11.6778C9.05748 11.4601 9.26532 11.2903 9.50851 11.19C9.75171 11.0897 10.0193 11.0633 10.2776 11.1142C10.5358 11.1652 10.7731 11.2911 10.9594 11.4762C11.1457 11.6612 11.2727 11.897 11.3244 12.1538C11.376 12.4106 11.3499 12.6769 11.2494 12.919C11.149 13.161 10.9786 13.368 10.7599 13.5138C10.5412 13.6596 10.284 13.7377 10.0207 13.7381C9.66806 13.737 9.33021 13.597 9.08106 13.3488C8.83191 13.1006 8.69172 12.7643 8.69117 12.4135H8.68697ZM5.24786 0.498622H17.9831V12.0547H11.8199L11.799 11.9734C11.7016 11.5779 11.4737 11.2263 11.1517 10.9749C10.8297 10.7235 10.4321 10.5869 10.0228 10.5869C9.61342 10.5869 9.2159 10.7235 8.89387 10.9749C8.57184 11.2263 8.34392 11.5779 8.2466 11.9734L8.22564 12.0547H5.25205L5.24786 0.498622Z" fill="black"/>
</svg>

<svg width="28" height="15" fill="none" xmlns="http://www.w3.org/2000/svg"><path d="M8.137 2.034H0v.678h8.137v-.678zm2.034 2.035H2.034v.678h8.137v-.678z" fill="#000"/><path d="M4.747.248v12.057a.247.247 0 00.155.23.26.26 0 00.096.018H8.19l.013.096c.056.44.271.844.606 1.137a1.836 1.836 0 002.42 0c.334-.293.55-.697.606-1.137l.012-.096h8.879l.013.096c.056.44.271.844.606 1.137a1.836 1.836 0 002.42 0c.334-.293.55-.697.606-1.137l.012-.096h2.49a.253.253 0 00.177-.072.248.248 0 00.074-.176V7.397a.247.247 0 00-.155-.23.25.25 0 00-.097-.018H24.84V3.81a.245.245 0 00-.072-.177.25.25 0 00-.177-.073h-6.103V.248A.248.248 0 0018.237 0H5.003a.25.25 0 00-.256.248zm16.476 12.166a1.32 1.32 0 01.823-1.224 1.339 1.339 0 011.45.288 1.323 1.323 0 01-.944 2.26 1.335 1.335 0 01-.937-.39 1.32 1.32 0 01-.388-.934h-.004zM18.484 4.07h5.855v3.337a.25.25 0 00.252.25h2.032v4.408h-2.271l-.021-.081a1.82 1.82 0 00-.645-1.012 1.837 1.837 0 00-2.275 0 1.82 1.82 0 00-.645 1.012l-.021.081h-2.257l-.004-7.995zm-9.797 8.344a1.32 1.32 0 01.822-1.224 1.339 1.339 0 011.45.286 1.323 1.323 0 01.29 1.443 1.326 1.326 0 01-1.228.82 1.337 1.337 0 01-.94-.39 1.323 1.323 0 01-.39-.935h-.004zM5.247.499h12.736v11.556H11.82l-.021-.082a1.819 1.819 0 00-.647-.998 1.835 1.835 0 00-2.905.998l-.021.082H5.252L5.248.499z" fill="#000"/></svg>
